pro/src/icons/full-key.svg

<svg width="48" height="48" viewBox="0 0 48 48" xmlns="http://www.w3.org/2000/svg">
<path id="icon" fill-rule="evenodd" clip-rule="evenodd" d="M13.6 34C8.29807 34 4 29.5228 4 24C4 18.4772 8.29807 14 13.6 14C17.7799 14 21.3359 16.7827 22.6538 20.6668L35.9832 20.6668L35.9999 20.6667L36.0165 20.6668H40.6666C42.5075 20.6668 43.9999 22.1591 43.9999 24.0001C43.9999 25.841 42.5075 27.3334 40.6666 27.3334H39.1999V30.8C39.1999 32.5674 37.7672 34 35.9999 34C34.2326 34 32.7999 32.5674 32.7999 30.8V27.3334L22.6537 27.3334C21.3358 31.2173 17.7799 34 13.6 34ZM18.3999 23.9944C18.3999 23.9963 18.3999 23.9982 18.3999 24.0001C18.3999 24.002 18.3999 24.0038 18.3999 24.0057C18.397 26.7645 16.2491 29 13.5999 29C10.949 29 8.79994 26.7614 8.79994 24C8.79994 21.2386 10.949 19 13.5999 19C16.2491 19 18.397 21.2356 18.3999 23.9944Z" fill="currentColor"/>
</svg>

<svg xmlns="http://www.w3.org/2000/svg" width="48" height="48"><path id="icon" fill="currentColor" fill-rule="evenodd" d="M13.6 34C8.298 34 4 29.523 4 24s4.298-10 9.6-10c4.18 0 7.736 2.783 9.054 6.667h18.013a3.333 3.333 0 1 1 0 6.666H39.2V30.8a3.2 3.2 0 1 1-6.4 0v-3.467H22.654C21.336 31.217 17.78 34 13.6 34m4.8-10.006v.012C18.397 26.765 16.25 29 13.6 29s-4.8-2.239-4.8-5 2.149-5 4.8-5 4.797 2.236 4.8 4.994" clip-rule="evenodd"/></svg>
